!!!OTL: Geistliche Lieder im Jacobston
!!!ARE: Europa, Mitteleuropa, Deutschland
!!!SCT: A0611A
!!!YEM: Copyright 1995, estate of Helmut Schaffrath.
**kern
*ICvox
*Ivox
*M4/1
*k[b-]
*d:
{2fn
=1
1fn
1fn
1g
1g
=2
1a
1a
1a
2r}
{2a
=3
1g
1a
1b-
1a
=4
1g
1fn
1g
2r}
{2g
=5
1a
1a
1fn
1fn
=6
0d
0cn}
=7
{1a
2a
2g
1fn
1fn
=8
1g
1fn
1g
2r}
{2a
=9
1fn
1fn
1d
1fn
=10
2e
2d
1e
1.d}
==
!!!AGN: Romanze, Ballade, Lied, religioeses Lied
!! Babsts Gsgb 1561 II No. 63
!!!ONB: ESAC (Essen Associative Code) Database: ALTDEU
!!!AMT: simple quadruple
!!!AIN: vox
!!!EED: Helmut Schaffrath
!!!EEV: 1.0
*-
